!!!COM: Mozart, Wolfgang Amadeus
!!!OPR: Symphony in C Major
!!!OTL:
!!!OMV: 1a
!!!SCT: K 425
!!!SCA: Chronologisch-thematisches Verzeichnis sämtlicher Tonwerke Wolfgang Amade Mozarts (L. von Köchel; 1862, 2/1905, 3/1937, 1947)
!!!YOR: Breitkopf & Härtel Edition
!!!EED: Frances Bennion
!!!ENC: Frances Bennion
!!!CDT: 1756/1/27/-1791/12/5/
!!!OCY: Österreich
!!!YEC: Copyright (c) 1994, 2000 Center for Computer Assisted Research in the Humanities
!!!YEM: Rights to all derivative editions reserved.
!!!YEM: Refer to licensing agreement for further details.
!!!YEN: United States of America
**kern	**kern	**kern	**kern	**kern	**kern	**kern	**kern	**kern	**kern	**kern	**kern	**kern	**kern
*k[]	*k[]	*k[]	*k[]	*k[]	*k[]	*k[]	*k[]	*k[]	*k[]	*k[]	*k[]	*k[]	*k[]
*C:	*C:	*C:	*C:	*C:	*C:	*C:	*C:	*C:	*C:	*C:	*C:	*C:	*C:
*clefF	*clefF	*clefF	*clefC3	*clefF4	*clefF4	*clefF	*clefF4	*clefF4	*clefF	*clefF	*clefF	*clefF	*clefF4
*M3/4	*M3/4	*M3/4	*M3/4	*M3/4	*M3/4	*M3/4	*M3/4	*M3/4	*M3/4	*M3/4	*M3/4	*M3/4	*M3/4
*tb32	*tb32	*tb32	*tb32	*tb32	*tb32	*tb32	*tb32	*tb32	*tb32	*tb32	*tb32	*tb32	*tb32
=1	=1	=1	=1	=1	=1	=1	=1	=1	=1	=1	=1	=1	=1
8cc	8c	8c	8c	8C	8C	8cc	8C	8C	8cc	8c	4cc	4c	4C
16.r	16.r	16.r	16.r	16.r	16.r	16.r	16.r	16.r	16.r	16.r	.	.	.
32cc	32c	32c	32c	32C	32C	32cc	32C	32C	32cc	32c	.	.	.
8ee	8e	8e	8e	8E	8E	8ee	8E	8E	8ee	8e	2r	2r	2r
16.r	16.r	16.r	16.r	16.r	16.r	16.r	16.r	16.r	16.r	16.r	.	.	.
32ee	32e	32e	32e	32E	32E	32ee	32E	32E	32ee	32e	.	.	.
8aa	8a	8a	8a	8A	8A	8aa	8A	8A	8cc	8c	.	.	.
16.r	16.r	16.r	16.r	16.r	16.r	16.r	16.r	16.r	16.r	16.r	.	.	.
32aa	32a	32a	32a	32A	32A	32aa	32A	32A	32cc	32c	.	.	.
=2	=2	=2	=2	=2	=2	=2	=2	=2	=2	=2	=2	=2	=2
8b	8B	8B	8B	8BB	8BB	8b	8BB	8BB	8g	8G	8..r	8..r	8..r
16.r	16.r	16.r	16.r	16.r	16.r	16.r	16.r	16.r	16.r	16.r	.	.	.
32gg	32ddd	32gg	32b	32B	32B	32dd	32B	32B	32dd	32g	32dd	32g	32GG
4gg	4ddd	4gg	4b	4B	4B	4dd	4B	4B	4dd	4g	4dd	4g	4GG
4r	8..r	8..r	8..r	8..r	8..r	4r	8..r	8..r	4r	4r	4r	4r	4r
.	32B	32B	32B	32BB	32BB	.	32BB	32BB	.	.	.	.	.
=3	=3	=3	=3	=3	=3	=3	=3	=3	=3	=3	=3	=3	=3
8..r	8B-	8B-	8B-	8BB-	8BB-	8..r	8BB-	8BB-	8..r	8..r	8..r	8..r	8..r
.	16.r	16.r	16.r	16.r	16.r	.	16.r	16.r	.	.	.	.	.
32ccc	32ccc 32ee	32gg 32cc	32b-	32B-	32B-	32ee	32B-	32B-	32cc	32c	32cc	32c	32C
4ccc	4ccc 4ee	4gg 4cc	4b-	4B-	4B-	4ee	4B-	4B-	4cc	4c	4cc	4c	4C
4r	4r	4r	4r	4r	4r	4r	4r	4r	4r	4r	4r	4r	4r
=4	=4	=4	=4	=4	=4	=4	=4	=4	=4	=4	=4	=4	=4
2.r	2.r	4f	8c	8A	8A	2.r	8A	2.r	2.r	[2.c	2.r	2.r	2.r
.	.	.	8c	8A	8A	.	8A	.	.	.	.	.	.
.	.	4f	8c	8A	8A	.	8A	.	.	.	.	.	.
.	.	.	8c	8A	8A	.	8A	.	.	.	.	.	.
.	.	4f	8c	8A	8A	.	8A	.	.	.	.	.	.
.	.	.	8c	8A	8A	.	8A	.	.	.	.	.	.
=5	=5	=5	=5	=5	=5	=5	=5	=5	=5	=5	=5	=5	=5
2.r	4.ccc	16f	8c	8G	8G	2.r	8G	2.r	[2.cc	2.c_	2.r	2.r	2.r
.	.	16e	.	.	.	.	.	.	.	.	.	.	.
.	.	16d#	8c	8G	8G	.	8G	.	.	.	.	.	.
.	.	16e	.	.	.	.	.	.	.	.	.	.	.
.	.	4.e	8c	8G	8G	.	8G	.	.	.	.	.	.
.	16bb	.	8c	8G	8G	.	8G	.	.	.	.	.	.
.	16aa	.	.	.	.	.	.	.	.	.	.	.	.
.	16aa	.	8c	8G	8G	.	8G	.	.	.	.	.	.
.	16gg	.	.	.	.	.	.	.	.	.	.	.	.
.	16ff	16f	8c	8G	8G	.	8G	.	.	.	.	.	.
.	16ee	16g	.	.	.	.	.	.	.	.	.	.	.
=6	=6	=6	=6	=6	=6	=6	=6	=6	=6	=6	=6	=6	=6
2.r	16ee	4a	8c	8F	8F	2.r	8F	2.r	2.cc_	2.c]	2.r	2.r	2.r
.	16dd	.	.	.	.	.	.	.	.	.	.	.	.
.	16cc#	.	8c	8F	8F	.	8F	.	.	.	.	.	.
.	16dd	.	.	.	.	.	.	.	.	.	.	.	.
.	2dd	4a	8c	8F	8F	.	8F	.	.	.	.	.	.
.	.	.	8c	8F	8F	.	8F	.	.	.	.	.	.
.	.	4a	8c	8F	8F	.	8F	.	.	.	.	.	.
.	.	.	8c	8F	8F	.	8F	.	.	.	.	.	.
=7	=7	=7	=7	=7	=7	=7	=7	=7	=7	=7	=7	=7	=7
2.r	4.gg	16a	8c	8E	8E	2.r	8E	2.r	2.cc]	2.r	2.r	2.r	2.r
.	.	16g	.	.	.	.	.	.	.	.	.	.	.
.	.	16f#	8c	8E	8E	.	8E	.	.	.	.	.	.
.	.	16g	.	.	.	.	.	.	.	.	.	.	.
.	.	2g	8c	8E	8E	.	8E	.	.	.	.	.	.
.	16ff	.	8c	8E	8E	.	8E	.	.	.	.	.	.
.	16ee	.	.	.	.	.	.	.	.	.	.	.	.
.	16dd	.	8c	8E-	8E-	.	8E-	.	.	.	.	.	.
.	16cc	.	.	.	.	.	.	.	.	.	.	.	.
.	16b	.	8c	8E-	8E-	.	8E-	.	.	.	.	.	.
.	16cc	.	.	.	.	.	.	.	.	.	.	.	.
=8	=8	=8	=8	=8	=8	=8	=8	=8	=8	=8	=8	=8	=8
2.r	16ff#	16cc	16a	2.D	8D	2.r	8r	8D	2.r	2.r	2.r	2.r	2.r
.	16f#	16c	16A	.	.	.	.	.	.	.	.	.	.
.	16f#	16c	16A	.	2r	.	8e-	2r	.	.	.	.	.
.	16f#	16c	16A	.	.	.	.	.	.	.	.	.	.
.	16f#	16c	16A	.	.	.	8d	.	.	.	.	.	.
.	16f#	16c	16A	.	.	.	.	.	.	.	.	.	.
.	16f#	16c	16A	.	.	.	8A	.	.	.	.	.	.
.	16f#	16c	16A	.	.	.	.	.	.	.	.	.	.
.	16f#	16c	16A	.	.	.	8d	.	.	.	.	.	.
.	16f#	16c	16A	.	.	.	.	.	.	.	.	.	.
.	16f#	16c	16A	.	8r	.	8c	8r	.	.	.	.	.
.	16f#	16c	16A	.	.	.	.	.	.	.	.	.	.
=9	=9	=9	=9	=9	=9	=9	=9	=9	=9	=9	=9	=9	=9
8r	16ff	16dd	16b	2.GG	8GG	2.r	2.B	8GG	2.r	2.r	2.r	2.r	2.r
.	16f	16d	16B	.	.	.	.	.	.	.	.	.	.
8aa-	16f	16d	16B	.	2r	.	.	2r	.	.	.	.	.
.	16f	16d	16B	.	.	.	.	.	.	.	.	.	.
8gg	16f	16d	16B	.	.	.	.	.	.	.	.	.	.
.	16f	16d	16B	.	.	.	.	.	.	.	.	.	.
8dd	16f	16d	16B	.	.	.	.	.	.	.	.	.	.
.	16f	16d	16B	.	.	.	.	.	.	.	.	.	.
8gg	16f	16d	16B	.	.	.	.	.	.	.	.	.	.
.	16f	16d	16B	.	.	.	.	.	.	.	.	.	.
8ff	16f	16d	16B	.	8r	.	.	8r	.	.	.	.	.
.	16f	16d	16B	.	.	.	.	.	.	.	.	.	.
=10	=10	=10	=10	=10	=10	=10	=10	=10	=10	=10	=10	=10	=10
8ee	16ee	16b-	16g	2.C	8C	8r	8c	8C	2.r	2.r	2.r	2.r	2.r
.	16e	16B-	16G	.	.	.	.	.	.	.	.	.	.
8ddd-	16e	16B-	16G	.	2r	8dd-	8d-	2r	.	.	.	.	.
.	16e	16B-	16G	.	.	.	.	.	.	.	.	.	.
8ccc	16e	16B-	16G	.	.	8cc	8c	.	.	.	.	.	.
.	16e	16B-	16G	.	.	.	.	.	.	.	.	.	.
8gg	16e	16B-	16G	.	.	8g	8G	.	.	.	.	.	.
.	16e	16B-	16G	.	.	.	.	.	.	.	.	.	.
8ccc	16e	16B-	16G	.	.	8cc	8c	.	.	.	.	.	.
.	16e	16B-	16G	.	.	.	.	.	.	.	.	.	.
8bb-	16e	16B-	16G	.	8r	8b-	8B-	8r	.	.	.	.	.
.	16e	16B-	16G	.	.	.	.	.	.	.	.	.	.
=11	=11	=11	=11	=11	=11	=11	=11	=11	=11	=11	=11	=11	=11
[2.aa-	8f	16A-	16F	8r	8r	8a-	4A-	[2.F	2.r	2.r	2.r	2.r	2.r
.	.	16c	16A- 16F	.	.	.	.	.	.	.	.	.	.
.	8r	16c	16A- 16F	8G	8G	8cc	.	.	.	.	.	.	.
.	.	16c	16F 16A-	.	.	.	.	.	.	.	.	.	.
.	8cc	16c	16A- 16F	8F	8F	[2ff	2c	.	.	.	.	.	.
.	.	16c	16F 16A-	.	.	.	.	.	.	.	.	.	.
.	8r	16c	16A- 16F	8C	8C	.	.	.	.	.	.	.	.
.	.	16c	16F 16A-	.	.	.	.	.	.	.	.	.	.
.	8aa-	16c	16F 16A-	8F	8F	.	.	.	.	.	.	.	.
.	.	16c	16F 16A-	.	.	.	.	.	.	.	.	.	.
.	8r	16c	16F 16A-	8E-	8E-	.	.	.	.	.	.	.	.
.	.	16c	16F 16A-	.	.	.	.	.	.	.	.	.	.
=12	=12	=12	=12	=12	=12	=12	=12	=12	=12	=12	=12	=12	=12
2.aa-]	8f	16d-	16A- 16F	8D-	8D-	2.ff]	2.d-	2.F_	2.r	2.r	2.r	2.r	2.r
.	.	16f	16d- 16A-	.	.	.	.	.	.	.	.	.	.
.	8r	16f	16A- 16d-	8E-	8E-	.	.	.	.	.	.	.	.
.	.	16f	16A- 16d-	.	.	.	.	.	.	.	.	.	.
.	8a-	16f	16d- 16A-	8D-	8D-	.	.	.	.	.	.	.	.
.	.	16f	16A- 16d-	.	.	.	.	.	.	.	.	.	.
.	8r	16f	16d- 16A-	8AA-	8AA-	.	.	.	.	.	.	.	.
.	.	16f	16d- 16A-	.	.	.	.	.	.	.	.	.	.
.	8aa-	16f	16A- 16d-	8D-	8D-	.	.	.	.	.	.	.	.
.	.	16f	16d- 16A-	.	.	.	.	.	.	.	.	.	.
.	8r	16f	16d- 16A-	8C	8C	.	.	.	.	.	.	.	.
.	.	16f	16d- 16A-	.	.	.	.	.	.	.	.	.	.
=13	=13	=13	=13	=13	=13	=13	=13	=13	=13	=13	=13	=13	=13
2.r	8r	4f	4d 4G	4BB	4BB	2.r	4d	4F]	2.r	2.r	2.r	2.r	2.r
.	8aa-	.	.	.	.	.	.	.	.	.	.	.	.
.	8gg	2r	4r	4r	4r	.	2r	2r	.	.	.	.	.
.	8dd	.	.	.	.	.	.	.	.	.	.	.	.
.	8gg	.	4g 4d	4B	4B	.	.	.	.	.	.	.	.
.	8ff	.	.	.	.	.	.	.	.	.	.	.	.
=14	=14	=14	=14	=14	=14	=14	=14	=14	=14	=14	=14	=14	=14
2.r	8ee-	8r	4g 4c	4c	4c	2.r	2.r	2.r	2.r	2.r	2.r	2.r	2.r
.	8ff	8a-	.	.	.	.	.	.	.	.	.	.	.
.	8ee-	8g	4r	4r	4r	.	.	.	.	.	.	.	.
.	8b	8d	.	.	.	.	.	.	.	.	.	.	.
.	8ee-	8g	4B	4G	4G	.	.	.	.	.	.	.	.
.	8dd	8f	.	.	.	.	.	.	.	.	.	.	.
=15	=15	=15	=15	=15	=15	=15	=15	=15	=15	=15	=15	=15	=15
8r	8cc	8e-	2.c	2.A-	2.A-	2.r	8r	2.r	2.r	2.r	2.r	2.r	2.r
8dd	4cc	8d	.	.	.	.	8d	.	.	.	.	.	.
8ee-	.	8e-	.	.	.	.	8e-	.	.	.	.	.	.
8ee	4cc	8e	.	.	.	.	8e	.	.	.	.	.	.
8ff	.	8f	.	.	.	.	8f	.	.	.	.	.	.
8ff#	8cc	8f#	.	.	.	.	8f#	.	.	.	.	.	.
=16	=16	=16	=16	=16	=16	=16	=16	=16	=16	=16	=16	=16	=16
8gg	8b	8g	8d	8G	8G	2.r	2.g	2.r	[2.g	[2.G	2.r	2.r	2.r
2r	8gg	4ee-	8r	8r	8r	.	.	.	.	.	.	.	.
.	8ff#	.	2g	4B	4B	.	.	.	.	.	.	.	.
.	8ff	8dd	.	.	.	.	.	.	.	.	.	.	.
.	8ee	8g	.	4c	4c	.	.	.	.	.	.	.	.
8r	8ee-	8cc	.	.	.	.	.	.	.	.	.	.	.
=17	=17	=17	=17	=17	=17	=17	=17	=17	=17	=17	=17	=17	=17
8r	8dd	8b	8g	8G	8G	8r	2.G	2.r	2.g_	2.G_	2.r	2.r	2.r
8gg	4g	8g	4e-	8r	8r	4ee-	.	.	.	.	.	.	.
8ff#	.	8f#	.	4BB	4BB	.	.	.	.	.	.	.	.
8ff	4g	8f	8d	.	.	8dd	.	.	.	.	.	.	.
8ee	.	8e	8G	4C	4C	8g	.	.	.	.	.	.	.
8ee-	8g	8e-	8c	.	.	8cc	.	.	.	.	.	.	.
=18	=18	=18	=18	=18	=18	=18	=18	=18	=18	=18	=18	=18	=18
8dd	8g	8d	8B	8G	8G	8b	8G	4r	8g]	8G]	4r	4r	2.r
8r	8a	8c	8e-	8F#	8F#	8r	8r	.	8r	8r	.	.	.
8gg	8g	8B	8d	8G	8G	8b	8g	8G	8dd	8g	8dd	8g	.
8r	8a	8c	8e-	8F#	8F#	8r	8r	8r	8r	8r	8r	8r	.
8gg	8g	8B	8d	8G	8G	8b	8g	8G	8dd	8g	8dd	8g	.
8r	8a	8c	8e-	8F#	8F#	8r	8r	8r	8r	8r	8r	8r	.
=19	=19	=19	=19	=19	=19	=19	=19	=19	=19	=19	=19	=19	=19
8gg	8g	8B	8d	8G	8G	8b	8g	8G	8dd	8g	8dd	8g	4r
8r	16.r	16.r	8r	8r	8r	8r	8r	8r	8r	8r	8r	8r	.
.	32gg	32b	.	.	.	.	.	.	.	.	.	.	.
4gg	4gg 4d 4b	4b 4d 4G	4g 4G	4GG	4GG	4b	4G	4GG	4g	4G	4g	4G	4GG
4r	4r	4r	4r	4r	4r	4r	4r	4r	4r	4r	4r	4r	4r
==	==	==	==	==	==	==	==	==	==	==	==	==	==
*-	*-	*-	*-	*-	*-	*-	*-	*-	*-	*-	*-	*-	*-
!!!RWG1: This file contains only pitch and duration data.
!!!RWG2: Transposing instruments are not transposed.
!!!RWG3: Spines may have incompatible meters.
!!!RWG4: Durations of rests and tied notes may be interpreted.
!!!RWG: Key is interpreted using the Humdrum key tool.
!!!OPT: Linz
!!!AFT: stage1
!!!END: 1997/04/15
!!format changes:
!!content changes:
!!public access: complete
!!!KEY: 418720242
!!!EMD: Converted from MuseData to Humdrum Dec 16, 2000, by Andreas Kornstaedt using muse2kern.
